assets/icons/thumbs-up.svg

<svg width="16" height="14" viewBox="0 0 16 14" fill="none" xmlns="http://www.w3.org/2000/svg">
<path fill-rule="evenodd" clip-rule="evenodd" d="M6.70746 1.3067C7.32003 0.387844 8.6201 0.259112 9.40098 1.03999L9.43807 1.07708C10.1001 1.73907 10.3874 2.6881 10.2038 3.6061L10.0125 4.56252H14.2502C15.0234 4.56252 15.6502 5.18932 15.6502 5.96252V7.42544C15.6502 7.57866 15.6334 7.73142 15.6002 7.88099L14.7188 11.847C14.5053 12.8079 13.6531 13.4915 12.6688 13.4915H2.32969C1.55649 13.4915 0.929688 12.8647 0.929688 12.0915V6.54167C0.929688 5.76847 1.55649 5.14167 2.32969 5.14167H4.15081L6.70746 1.3067ZM3.82544 6.54167H2.32969V12.0915H3.82544V6.54167ZM5.22544 12.0915H12.6688C12.9969 12.0915 13.281 11.8636 13.3522 11.5433L14.2335 7.57729C14.2446 7.52743 14.2502 7.47651 14.2502 7.42544V5.96252H9.15865C8.94894 5.96252 8.75027 5.86849 8.61731 5.70631C8.48436 5.54413 8.43112 5.33088 8.47225 5.12524L8.83098 3.33154C8.92279 2.87254 8.77911 2.39802 8.44812 2.06703L8.41103 2.02994C8.25486 1.87377 7.99484 1.89951 7.87233 2.08328L5.22544 6.05361V12.0915Z" fill="#494369"/>
</svg>

<svg xmlns="http://www.w3.org/2000/svg" width="16" height="14" fill="none" viewBox="0 0 16 14"><path fill="#494369" fill-rule="evenodd" d="M6.707 1.307a1.75 1.75 0 0 1 2.694-.267l.037.037a2.8 2.8 0 0 1 .766 2.53l-.192.956h4.238a1.4 1.4 0 0 1 1.4 1.4v1.462q0 .231-.05.456l-.881 3.966a2.1 2.1 0 0 1-2.05 1.645H2.329a1.4 1.4 0 0 1-1.4-1.4v-5.55a1.4 1.4 0 0 1 1.4-1.4h1.822zM3.825 6.542H2.33v5.55h1.495zm1.4 5.55h7.444a.7.7 0 0 0 .683-.549l.881-3.966q.017-.075.017-.152V5.963H9.16a.7.7 0 0 1-.687-.838l.359-1.793a1.4 1.4 0 0 0-.383-1.265l-.037-.037a.35.35 0 0 0-.539.053l-2.647 3.97z" clip-rule="evenodd"/></svg>
